style-guide/assets/xd-icons-share-tiny.svg

<svg viewBox="0 0 12 12" xmlns="http://www.w3.org/2000/svg">
  <path d="M9.5 7c-.694 0-1.324.285-1.777.743L4.987 6.375l-.014-.006a2.504 2.504 0 0 0 0-.738l.014-.006 2.736-1.368A2.495 2.495 0 0 0 9.5 5C10.878 5 12 3.878 12 2.5S10.878 0 9.5 0a2.503 2.503 0 0 0-2.497 2.38l-2.91 1.455a1.115 1.115 0 0 0-.172.109A2.485 2.485 0 0 0 2.5 3.5 2.503 2.503 0 0 0 0 6c0 1.378 1.122 2.5 2.5 2.5.527 0 1.018-.164 1.421-.444.053.041.11.077.172.109l2.91 1.455A2.503 2.503 0 0 0 9.5 12c1.378 0 2.5-1.122 2.5-2.5S10.878 7 9.5 7"/>
</svg>

<?xml version="1.0" encoding="UTF-8"?>
<svg width="12px" height="12px" viewBox="0 0 12 12" version="1.1" xmlns="http://www.w3.org/2000/svg" xmlns:xlink="http://www.w3.org/1999/xlink">
    <!-- Generator: Sketch 51.3 (57544) - http://www.bohemiancoding.com/sketch -->
    <title>share</title>
    <desc>Created with Sketch.</desc>
    <defs></defs>
    <g id="share" stroke="none" stroke-width="1" fill="none" fill-rule="evenodd">
        <path d="M9.5,7 C8.806,7 8.176,7.285 7.723,7.743 L4.987,6.375 C4.982,6.373 4.978,6.371 4.973,6.369 C4.991,6.248 5,6.125 5,6 C5,5.875 4.991,5.752 4.973,5.631 C4.978,5.629 4.982,5.627 4.987,5.625 L7.723,4.257 C8.176,4.715 8.806,5 9.5,5 C10.878,5 12,3.878 12,2.5 C12,1.122 10.878,0 9.5,0 C8.162,0 7.065,1.057 7.003,2.38 L4.093,3.835 C4.031,3.867 3.974,3.903 3.921,3.944 C3.518,3.664 3.027,3.5 2.5,3.5 C1.122,3.5 0,4.622 0,6 C0,7.378 1.122,8.5 2.5,8.5 C3.027,8.5 3.518,8.336 3.921,8.056 C3.974,8.097 4.031,8.133 4.093,8.165 L7.003,9.62 C7.065,10.943 8.162,12 9.5,12 C10.878,12 12,10.878 12,9.5 C12,8.122 10.878,7 9.5,7" id="Fill-1" fill="#000000"></path>
    </g>
</svg>
